X: 227
T: Wes Muir's Tune
B: canberra pickers and fiddlers
B: tunes
M:4/4
L:1/8
R: reel
Q: 1/4=100
K:C
V:1 
(EF|"C"G2)[G2e2]-[G2e2][G2e2]|([G3e3]d) cBAB|cd-cA GBAB|cdcA GEDE|
"G"F2[F2d2]-[F2d2][F2d2]|[F3d3]e dcAB|cd-cA GcAB|("C"[E3c3]d) [E2c2]:||
|:""ce|"F"f2 fg f2fg|fefe afgf|"C"ec-cd c2+slide+c2-|cdef gagd|
"G"B[G2B2]A [G2B2]+slide+[G2B2]-|[GB]ABd gage|cdcA GcAG|1"C"[e6c6]eg:|2"C"[c6e6]||
% abcbook-tune_id 63ae8f1c853b7f74b627f7f8
% abcbook-tune_composer_id 
% abcbook-link-0 https://www.youtube.com/watch?v=iyAtuF_4bu4
% abcbook-link-start-at-0 37
% abcbook-boost 0
% abcbook-difficulty 0
% abcbook-tags canberra pickers and fiddlers,old time tunes,© free
% abcbook-tablature 
% abcbook-transpose 
% abcbook-tuning GDAE
% abcbook-lastupdated 1739275383542
% abcbook-src-url https://tunebook.net/scrape/tunes.abc
% abcbook-soundfonts 
% abcbook-repeats 1


